X:1
T:His Grace Aboundeth More
T:His Grace Aboundeth More
T:William James Kirkpatrick
T:Kate Ulmer, 1899
T:Public Domain Courtesy of the Cyber Hymnal™
C:William James Kirkpatrick
Z:Public Domain
Z:Courtesy of the Cyber Hymnal™
%%score ( 1 2 ) ( 3 4 )
L:1/8
Q:1/4=110
M:6/8
K:Ab
V:1 treble 
V:2 treble 
V:3 bass 
V:4 bass 
V:1
 [CE][DF][CE] [A,C][CE][CA] | [Ec]3 [CA]2 [CE] | [DF][D=E][DF] [DA][DG][DF] | %3
w: 1.~O what a won- der- ful|Sav- ior In|Je- sus, my Lord, I have|
w: 2.~When a poor sin- ner He|found me; No|good- ness to of- fer had|
w: 3.~No- thing of mer- it pos-|sess- ing, All|help- less be- fore Him I|
w: 4.~How can I keep from re-|joic- ing? I’ll|sing of the joy in my|
 [CE]6 [CE][DF][CE][A,C][CE][CA] | [Ec]3 [CA]2 [Ec] | [DB][DB][DF] [DG][DF][DE] | [CA]3- [CA]2 || %7
w: found! Tho’ I had sins with- out|num- ber, His|grace un- to me did a-|bound. *|
w: I. Of- ten His law I had|brok- en And|mer- it- ed naught but to|die. *|
w: lay; But, in the pre- cious blood|flow- ing, He|washed all my sin- stains a-|way. *|
w: soul, Prais- ing the love of my|Sav- ior While|years of e- ter- ni- ty|roll. *|
"^Refrain" [CE] | [CE]2 [CE] [A,C][B,D][CE] | [DF]3- [DF]2 [DF] | [CE]2 [EA] (AG)[_DA] | %11
w: ||||
w: ||||
w: ||||
w: ||||
 [DB]3- [DB]2 E | [Ec]2 [Ec] ([Ec][Fd])[Ec] | [DF]2 [DF] [=DB]2 [DA] | [DG]2 [DG] (GF)[DE] | %15
w: ||||
w: ||||
w: ||||
w: ||||
 [CA]6 |] %16
w: |
w: |
w: |
w: |
V:2
 x6 | x6 | x6 | x12 | x6 | x6 | x5 || x | x6 | x6 | x3 =D2 x | x5 E | x6 | x6 | x3 D2 x | x6 |] %16
V:3
 [A,,A,][A,,A,][A,,A,] [A,,E,][A,,A,][A,,A,] | [A,,A,]3 [A,,E,]2 [A,,A,] | %2
w: ~ ~ ~ ~ ~ ~|~ ~ ~|
 [D,A,][D,G,][D,A,] [D,F,][D,G,][D,A,] | [A,,A,]6 [A,,A,][A,,A,][A,,A,][A,,E,][A,,A,][A,,A,] | %4
w: ~ ~ ~ ~ ~ ~|~ ~ ~ ~ ~ ~ ~|
 [A,,A,]3 [A,,E,]2 [A,,A,] | [D,F,][D,F,][D,B,] [E,B,][E,A,][E,G,] | [A,,A,]3- [A,,A,]2 || %7
w: ~ ~ ~|~ ~ ~ ~ ~ ~|~ *|
 [A,,A,] | [A,,A,]2 [A,,A,] [A,,E,]2 [A,,A,] | ([D,A,]2 [D,A,] [D,A,]2) [D,A,] | %10
w: His|grace a- bound- eth|more. * * His|
 [A,,A,]2 [C,E,] [B,,F,]2 [B,,F,] | [E,G,]3- [E,G,]2 [E,G,] | [A,,A,]2 [A,,A,] A,2 A, | %13
w: grace a- bound- eth|more. * Tho’|sin a- bound- ed|
 [D,A,]2 [D,F,] [B,,F,]2 [B,,B,] | [E,B,]2 [E,B,] (B,A,)[E,G,] | [A,,E,]6 |] %16
w: in my heart, His|grace a- bound- * eth|more.|
V:4
 x6 | x6 | x6 | x12 | x6 | x6 | x5 || x | x6 | x6 | x6 | x6 | x3 A,2 A, | x6 | x3 E,2 x | x6 |] %16

